CSETWebApi/CSETWeb_Api/CSETWeb_ApiCore/Diagram/src/main/webapp/img/lib/ibm/infrastructure/monitoring.svg

<svg xmlns="http://www.w3.org/2000/svg" viewBox="0 0 64.5 64.2"><ellipse cx="32.3" cy="32.1" rx="32.3" ry="32.1" fill="#7dbd31"/><path d="M10 14.3v35.5h44.4V14.3H10zm43 34.1H11.5V21.8H53v26.6zM32.3 44c6.6 0 11.7-3.6 14.8-8.9-3.1-5.3-8.2-8.9-14.8-8.9s-11.7 3.6-14.8 8.9c3.1 5.3 8.1 8.9 14.8 8.9zm0-16.3c5.4 0 10.3 2.8 13.1 7.4-4.3 7.2-13.7 9.6-20.9 5.2-2.1-1.3-3.9-3.1-5.2-5.2 2.6-4.6 7.6-7.4 13-7.4zm0 12.6c2.9 0 5.2-2.3 5.1-5.2 0-2.9-2.3-5.2-5.2-5.1-2.8 0-5.1 2.3-5.1 5.2-.1 2.7 2.2 5.1 5.2 5.1-.1 0-.1 0 0 0zm0-7c1 0 1.7.8 1.7 1.7s-.8 1.7-1.7 1.7-1.7-.8-1.7-1.7c-.1-.9.7-1.6 1.7-1.7-.1 0-.1 0 0 0z" fill="#fff"/></svg>

<?xml version="1.0" encoding="utf-8"?>
<!-- Generator: Adobe Illustrator 21.1.0, SVG Export Plug-In . SVG Version: 6.00 Build 0)  -->
<svg version="1.1" id="Layer_1" xmlns="http://www.w3.org/2000/svg" xmlns:xlink="http://www.w3.org/1999/xlink" x="0px" y="0px"
	 viewBox="0 0 64.5 64.2" style="enable-background:new 0 0 64.5 64.2;" xml:space="preserve">
<style type="text/css">
	.st0{fill:#7DBD31;}
	.st1{fill:#FFFFFF;}
</style>
<title>IBM Cloud Private Ref Arch</title>
<ellipse class="st0" cx="32.3" cy="32.1" rx="32.3" ry="32.1"/>
<path class="st1" d="M10,14.3v35.5h44.4V14.3H10z M53,48.4H11.5V21.8H53V48.4z"/>
<path class="st1" d="M32.3,44c6.6,0,11.7-3.6,14.8-8.9c-3.1-5.3-8.2-8.9-14.8-8.9s-11.7,3.6-14.8,8.9C20.6,40.4,25.6,44,32.3,44z
	 M32.3,27.7c5.4,0,10.3,2.8,13.1,7.4c-4.3,7.2-13.7,9.6-20.9,5.2c-2.1-1.3-3.9-3.1-5.2-5.2C21.9,30.5,26.9,27.7,32.3,27.7z"/>
<path class="st1" d="M32.3,40.3c2.9,0,5.2-2.3,5.1-5.2c0-2.9-2.3-5.2-5.2-5.1c-2.8,0-5.1,2.3-5.1,5.2C27,37.9,29.3,40.3,32.3,40.3
	C32.2,40.3,32.2,40.3,32.3,40.3z M32.3,33.3c1,0,1.7,0.8,1.7,1.7s-0.8,1.7-1.7,1.7s-1.7-0.8-1.7-1.7l0,0
	C30.5,34.1,31.3,33.4,32.3,33.3C32.2,33.3,32.2,33.3,32.3,33.3z"/>
</svg>
